svg/brand/apple-pay.svg

<svg width="16" height="16" viewBox="0 0 16 16" fill="none" xmlns="http://www.w3.org/2000/svg">
<path d="M15.873 4.20502C15.873 4.16002 15.873 4.11502 15.873 4.06902C15.8715 3.96853 15.8628 3.86827 15.847 3.76902C15.8301 3.67126 15.7988 3.57655 15.754 3.48802C15.7091 3.39931 15.6503 3.3183 15.58 3.24802C15.5093 3.17812 15.4284 3.11945 15.34 3.07402C15.2512 3.02916 15.1561 2.99781 15.058 2.98102C14.9588 2.96463 14.8585 2.95594 14.758 2.95502H1.236C1.13548 2.95594 1.03518 2.96463 0.936 2.98102C0.839032 2.99937 0.745337 3.03206 0.658 3.07802C0.569599 3.12345 0.488664 3.18212 0.418 3.25202C0.347658 3.3223 0.288927 3.40331 0.244 3.49202C0.199233 3.58055 0.167889 3.67526 0.151 3.77302C0.13521 3.87227 0.126521 3.97253 0.125 4.07302C0.125 4.11902 0.125 4.16402 0.125 4.20902V11.795C0.125 11.84 0.125 11.885 0.125 11.931C0.126521 12.0315 0.13521 12.1318 0.151 12.231C0.167889 12.3288 0.199233 12.4235 0.244 12.512C0.288927 12.6007 0.347658 12.6817 0.418 12.752C0.488664 12.8219 0.569599 12.8806 0.658 12.926C0.746813 12.971 0.841874 13.0023 0.94 13.019C1.03912 13.0359 1.13946 13.0446 1.24 13.045H14.76C14.8605 13.0446 14.9609 13.0359 15.06 13.019C15.1581 13.0022 15.2532 12.9709 15.342 12.926C15.4304 12.8806 15.5113 12.8219 15.582 12.752C15.6523 12.6817 15.7111 12.6007 15.756 12.512C15.8008 12.4235 15.8321 12.3288 15.849 12.231C15.8648 12.1318 15.8735 12.0315 15.875 11.931C15.875 11.885 15.875 11.84 15.875 11.795V4.20502H15.873ZM15.537 11.789C15.537 11.832 15.537 11.875 15.537 11.918C15.5357 12.0004 15.5287 12.0826 15.516 12.164C15.5051 12.2295 15.4842 12.2929 15.454 12.352C15.425 12.4089 15.3872 12.4609 15.342 12.506C15.2968 12.5518 15.2445 12.59 15.187 12.619C15.1279 12.649 15.0645 12.6696 14.999 12.68C14.9183 12.6929 14.8367 12.6999 14.755 12.701H1.245C1.16227 12.7 1.07971 12.693 0.998 12.68C0.932266 12.6694 0.868533 12.6488 0.809 12.619C0.752007 12.5897 0.700026 12.5516 0.655 12.506C0.609506 12.4611 0.571672 12.4091 0.543 12.352C0.512989 12.2925 0.492089 12.2288 0.481 12.163C0.467853 12.082 0.460833 12.0001 0.46 11.918C0.46 11.875 0.46 11.832 0.46 11.789V4.20802C0.46 4.16502 0.46 4.12202 0.46 4.07902C0.46083 3.99628 0.46785 3.91371 0.481 3.83202C0.492244 3.76663 0.513138 3.70327 0.543 3.64402C0.571672 3.58691 0.609506 3.53489 0.655 3.49002C0.7 3.44397 0.75239 3.40577 0.81 3.37702C0.869301 3.34749 0.932659 3.32693 0.998 3.31602C1.07976 3.30382 1.16233 3.29781 1.245 3.29802H14.751C14.8337 3.29781 14.9162 3.30382 14.998 3.31602C15.0636 3.32709 15.1273 3.34764 15.187 3.37702C15.2436 3.40654 15.2955 3.44428 15.341 3.48902C15.386 3.5347 15.4237 3.58697 15.453 3.64402C15.4833 3.70344 15.5042 3.76719 15.515 3.83302C15.5277 3.91443 15.5348 3.99663 15.536 4.07902C15.536 4.12102 15.536 4.16402 15.536 4.20802L15.537 11.789Z" fill="black"/>
<path d="M4.263 6.36002C4.40773 6.18721 4.47946 5.96482 4.463 5.74002C4.24063 5.762 4.03551 5.86958 3.891 6.04002C3.81946 6.12172 3.76493 6.21686 3.73059 6.31988C3.69625 6.4229 3.68279 6.53173 3.691 6.64002C3.80143 6.64034 3.91046 6.61525 4.00964 6.5667C4.10883 6.51815 4.19551 6.44743 4.263 6.36002Z" fill="black"/>
<path d="M4.751 7.79802C4.75313 7.64981 4.79254 7.50452 4.86559 7.37554C4.93864 7.24657 5.04298 7.13806 5.169 7.06002C5.08831 6.94595 4.98253 6.85192 4.85978 6.78517C4.73703 6.71842 4.6006 6.68074 4.461 6.67502C4.142 6.65602 3.871 6.85602 3.719 6.85602C3.567 6.85602 3.334 6.68502 3.082 6.68902C2.91789 6.69288 2.75767 6.73969 2.6173 6.82479C2.47693 6.90989 2.36132 7.0303 2.282 7.17402C2.15199 7.49195 2.10605 7.83801 2.14861 8.17885C2.19117 8.51969 2.3208 8.84382 2.525 9.12002C2.686 9.35802 2.881 9.62002 3.138 9.61102C3.38 9.60102 3.476 9.45302 3.77 9.45302C4.064 9.45302 4.151 9.61102 4.407 9.60602C4.663 9.60102 4.84 9.36802 5.002 9.13002C5.11625 8.96127 5.20582 8.77708 5.268 8.58302C5.11532 8.51593 4.9853 8.40614 4.89357 8.26687C4.80185 8.1276 4.75233 7.96478 4.751 7.79802Z" fill="black"/>
<path d="M7.638 6.01202H6.298V9.58102H6.852V8.36202H7.618C7.77574 8.37081 7.93358 8.34649 8.08135 8.29062C8.22913 8.23474 8.36357 8.14855 8.47604 8.0376C8.5885 7.92664 8.67649 7.79337 8.73435 7.64636C8.79222 7.49935 8.81867 7.34186 8.812 7.18402C8.8196 7.02792 8.79442 6.87197 8.73808 6.7262C8.68175 6.58043 8.5955 6.44808 8.4849 6.33767C8.3743 6.22726 8.2418 6.14124 8.09594 6.08515C7.95007 6.02906 7.79408 6.00415 7.638 6.01202ZM7.489 7.89802H6.854V6.47902H7.492C7.59019 6.46566 7.69013 6.47439 7.78452 6.50457C7.87892 6.53474 7.96539 6.5856 8.03763 6.65343C8.10987 6.72127 8.16606 6.80437 8.20211 6.89668C8.23816 6.98899 8.25315 7.08818 8.246 7.18702C8.25333 7.28629 8.23838 7.38596 8.20225 7.47871C8.16611 7.57147 8.1097 7.65498 8.03714 7.72313C7.96458 7.79128 7.8777 7.84235 7.78286 7.87261C7.68803 7.90287 7.58762 7.91155 7.489 7.89802Z" fill="black"/>
<path d="M10.117 6.95902C9.87322 6.92781 9.627 6.99447 9.43226 7.14441C9.23752 7.29435 9.11014 7.51535 9.078 7.75902H9.578C9.60696 7.64534 9.67607 7.54597 9.77256 7.47925C9.86905 7.41254 9.98642 7.38297 10.103 7.39602C10.441 7.39602 10.632 7.55402 10.632 7.84302V8.04302L9.942 8.08502C9.299 8.12502 8.95 8.38502 8.95 8.84502C8.9518 8.95439 8.97647 9.06217 9.02242 9.16144C9.06838 9.26071 9.13459 9.34926 9.21681 9.42141C9.29904 9.49355 9.39545 9.54769 9.49985 9.58035C9.60424 9.613 9.71432 9.62345 9.823 9.61102C9.98742 9.61591 10.1501 9.5762 10.2938 9.49609C10.4374 9.41598 10.5567 9.29846 10.639 9.15602H10.652V9.58402H11.164V7.80502C11.164 7.29102 10.751 6.95902 10.117 6.95902ZM10.632 8.61102C10.6289 8.69301 10.609 8.77349 10.5735 8.84748C10.538 8.92147 10.4878 8.9874 10.4258 9.0412C10.3639 9.095 10.2916 9.13552 10.2133 9.16025C10.1351 9.18499 10.0526 9.19342 9.971 9.18502C9.677 9.18502 9.489 9.04402 9.489 8.82702C9.489 8.61002 9.67 8.47302 10.016 8.45102L10.632 8.41102V8.61102Z" fill="black"/>
<path d="M12.621 9.09802H12.609L11.956 6.99002H11.377L12.314 9.59002L12.265 9.74902C12.2475 9.85818 12.1898 9.95683 12.1031 10.0255C12.0165 10.0942 11.9073 10.1279 11.797 10.12C11.7425 10.1195 11.6881 10.1161 11.634 10.11V10.538C11.7052 10.5482 11.7771 10.5532 11.849 10.553C12.389 10.553 12.643 10.347 12.866 9.72202L13.838 6.99302H13.274L12.621 9.09802Z" fill="black"/>
</svg>

<svg id="Layer_1" data-name="Layer 1" xmlns="http://www.w3.org/2000/svg" viewBox="0 0 16 16"><title>apple-pay</title><path d="M15.875,4.207c0-.045,0-.09,0-.136a2.113,2.113,0,0,0-.026-.3,1,1,0,0,0-.093-.281.939.939,0,0,0-.174-.24.975.975,0,0,0-.24-.174,1,1,0,0,0-.282-.093,1.95,1.95,0,0,0-.3-.026l-.136,0H1.374l-.136,0a1.95,1.95,0,0,0-.3.026A.994.994,0,0,0,.66,3.08a.975.975,0,0,0-.24.174.939.939,0,0,0-.174.24,1,1,0,0,0-.093.281,2.113,2.113,0,0,0-.026.3c0,.046,0,.091,0,.136v7.586c0,.045,0,.09,0,.136a2.113,2.113,0,0,0,.026.3,1,1,0,0,0,.093.281.939.939,0,0,0,.174.24.975.975,0,0,0,.24.174.994.994,0,0,0,.282.093,1.829,1.829,0,0,0,.3.026l.136,0H14.626l.136,0a1.829,1.829,0,0,0,.3-.026,1,1,0,0,0,.282-.093.975.975,0,0,0,.24-.174.939.939,0,0,0,.174-.24,1,1,0,0,0,.093-.281,2.113,2.113,0,0,0,.026-.3c0-.046,0-.091,0-.136V4.207Zm-.336,7.424v.16c0,.043,0,.086,0,.129a1.79,1.79,0,0,1-.021.246.649.649,0,0,1-.062.188.608.608,0,0,1-.112.154.593.593,0,0,1-.155.113.639.639,0,0,1-.188.061,1.7,1.7,0,0,1-.244.021l-.132,0H1.376l-.129,0A1.7,1.7,0,0,1,1,12.682a.655.655,0,0,1-.189-.061.605.605,0,0,1-.154-.113.585.585,0,0,1-.112-.154.666.666,0,0,1-.062-.189,1.633,1.633,0,0,1-.021-.245c0-.043,0-.086,0-.129V4.21c0-.043,0-.086,0-.129a1.659,1.659,0,0,1,.021-.247.67.67,0,0,1,.062-.188.585.585,0,0,1,.112-.154.577.577,0,0,1,.155-.113A.669.669,0,0,1,1,3.318,1.646,1.646,0,0,1,1.247,3.3l.129,0H14.624l.129,0A1.646,1.646,0,0,1,15,3.318a.687.687,0,0,1,.189.061.646.646,0,0,1,.154.112.632.632,0,0,1,.112.155.646.646,0,0,1,.062.189,1.764,1.764,0,0,1,.021.246c0,.042,0,.085,0,.129v7.421Z"/><path d="M4.265,6.362a.867.867,0,0,0,.2-.62.861.861,0,0,0-.572.3.817.817,0,0,0-.2.6A.72.72,0,0,0,4.265,6.362Z"/><path d="M4.753,7.8a.883.883,0,0,1,.418-.738.913.913,0,0,0-.708-.385c-.319-.019-.59.181-.742.181s-.385-.171-.637-.167a.939.939,0,0,0-.8.485,2,2,0,0,0,.243,1.946c.161.238.356.5.613.491.242-.01.338-.158.632-.158s.381.158.637.153.433-.238.595-.476a2.141,2.141,0,0,0,.266-.547A.865.865,0,0,1,4.753,7.8Z"/><path d="M7.64,6.014H6.3V9.583h.554V8.364h.766A1.132,1.132,0,0,0,8.814,7.186,1.119,1.119,0,0,0,7.64,6.014ZM7.491,7.9H6.856V6.481h.638a.666.666,0,0,1,.754.708A.668.668,0,0,1,7.491,7.9Z"/><path d="M10.119,6.961a.929.929,0,0,0-1.039.8h.5a.486.486,0,0,1,.525-.363c.338,0,.529.158.529.447v.2l-.69.042c-.643.04-.992.3-.992.76a.784.784,0,0,0,.873.766.911.911,0,0,0,.816-.455h.013v.428h.512V7.807C11.166,7.293,10.753,6.961,10.119,6.961Zm.515,1.652a.6.6,0,0,1-.661.574c-.294,0-.482-.141-.482-.358s.181-.354.527-.376l.616-.04Z"/><path d="M12.623,9.1h-.012l-.653-2.108h-.579l.937,2.6-.049.159a.442.442,0,0,1-.468.371,1.6,1.6,0,0,1-.163-.01v.428a1.5,1.5,0,0,0,.215.015c.54,0,.794-.206,1.017-.831l.972-2.729h-.564Z"/></svg>
